; generated by PrusaSlicer 2.9.1 on 2025-10-08 at 17:57:53 UTC


;
;
; 

; external perimeters extrusion width = 0.45mm
; perimeters extrusion width = 0.45mm
; infill extrusion width = 0.45mm
; solid infill extrusion width = 0.45mm
; top infill extrusion width = 0.40mm
; first layer extrusion width = 0.42mm

M73 P0 R4
M73 Q0 S4
M201 X1000 Y1000 Z200 E5000 ; sets maximum accelerations, mm/sec^2
M203 X200 Y200 Z12 E120 ; sets maximum feedrates, mm / sec
M204 S1250 T1250 ; sets acceleration (S) and retract acceleration (R), mm/sec^2
M205 X8.00 Y8.00 Z0.40 E4.50 ; sets the jerk limits, mm/sec
M205 S0 T0 ; sets the minimum extruding and travel feed rate, mm/sec

; printing object pcb_feet_tpu.stl id:0 copy 0
; stop printing object pcb_feet_tpu.stl id:0 copy 0

;TYPE:Custom
M862.3 P "MK3S" ; printer model check
M862.1 P0.4 ; nozzle diameter check
M115 U3.14.1 ; tell printer latest fw version
G90 ; use absolute coordinates
M83 ; extruder relative mode
M104 S240 ; set extruder temp
M140 S50 ; set bed temp
M190 S50 ; wait for bed temp
M109 S240 ; wait for extruder temp
G28 W ; home all without mesh bed level
G80 X116.925 Y96.9253 W16.1495 H16.1495 ; mesh bed levelling

G1 Z0.2 F720
G1 Y-3 F1000 ; go outside print area
G92 E0
G1 X60 E9 F1000 ; intro line
G1 X100 E12.5 F1000 ; intro line
M73 P1 R4
M73 Q1 S4

G92 E0
M221 S95

; Don't change E values below. Excessive value can damage the printer.
M907 E430 ; set extruder motor current
G21 ; set units to millimeters
G90 ; use absolute coordinates
M83 ; use relative distances for extrusion
M900 K0 ; Filament gcode
M107
;LAYER_CHANGE
;Z:0.2
;HEIGHT:0.2
G1 X118.621 Y100.363 F10800
M73 P2 R3
M73 Q2 S3
G1 Z.2 F720
M204 S800
;TYPE:Skirt/Brim
;WIDTH:0.42
G1 F954.706
G1 X119.65 Y99.205 E.05586
G1 X120.884 Y98.273 E.05576
M73 Q3 S3
G1 X122.275 Y97.599 E.05573
G1 X123.766 Y97.211 E.05555
G1 X125.315 Y97.12 E.05595
M73 P3 R3
G1 X126.846 Y97.333 E.05574
G1 X128.302 Y97.838 E.05557
G1 X129.637 Y98.621 E.05581
G1 X130.795 Y99.65 E.05586
G1 X131.727 Y100.884 E.05576
G1 X132.401 Y102.275 E.05573
G1 X132.789 Y103.766 E.05555
G1 X132.88 Y105.315 E.05595
G1 X132.667 Y106.846 E.05574
G1 X132.162 Y108.302 E.05557
G1 X131.379 Y109.637 E.05581
G1 X130.35 Y110.795 E.05586
G1 X129.116 Y111.727 E.05576
G1 X127.725 Y112.401 E.05573
G1 X126.234 Y112.789 E.05555
G1 X124.685 Y112.88 E.05595
G1 X123.154 Y112.667 E.05574
G1 X121.698 Y112.162 E.05557
G1 X120.363 Y111.379 E.05581
G1 X119.205 Y110.35 E.05586
G1 X118.273 Y109.116 E.05576
G1 X117.599 Y107.725 E.05573
M73 Q4 S3
G1 X117.211 Y106.234 E.05555
G1 X117.12 Y104.685 E.05595
G1 X117.333 Y103.154 E.05574
G1 X117.838 Y101.698 E.05557
M73 P4 R3
G1 X118.591 Y100.415 E.05364
M204 S1000
G1 X118.915 Y100.605 F10800
M204 S800
G1 F954.706
G1 X118.929 Y100.58 E.00103
G1 X119.91 Y99.478 E.0532
G1 X121.085 Y98.591 E.05308
G1 X122.411 Y97.951 E.05309
G1 X123.83 Y97.582 E.05287
G1 X125.306 Y97.497 E.05331
G1 X126.764 Y97.7 E.05308
G1 X128.149 Y98.183 E.05289
G1 X129.42 Y98.929 E.05314
G1 X130.522 Y99.91 E.0532
G1 X131.409 Y101.085 E.05308
G1 X132.049 Y102.411 E.05309
G1 X132.418 Y103.83 E.05287
G1 X132.503 Y105.306 E.05331
G1 X132.3 Y106.764 E.05308
G1 X131.817 Y108.149 E.05289
G1 X131.071 Y109.42 E.05314
G1 X130.09 Y110.522 E.0532
G1 X128.915 Y111.409 E.05308
G1 X127.589 Y112.049 E.05309
G1 X126.17 Y112.418 E.05287
G1 X124.694 Y112.503 E.05331
M73 Q5 S3
G1 X123.236 Y112.3 E.05308
G1 X121.851 Y111.817 E.05289
G1 X120.58 Y111.071 E.05314
G1 X119.478 Y110.09 E.0532
M73 P5 R3
G1 X118.591 Y108.915 E.05308
G1 X117.951 Y107.589 E.05309
G1 X117.582 Y106.17 E.05287
G1 X117.497 Y104.694 E.05331
G1 X117.7 Y103.236 E.05308
G1 X118.183 Y101.851 E.05289
G1 X118.884 Y100.657 E.04992
M204 S1000
G1 X119.208 Y100.847 F10800
M204 S800
G1 F954.706
G1 X119.238 Y100.796 E.00213
G1 X120.17 Y99.751 E.05049
G1 X121.287 Y98.91 E.05042
G1 X122.547 Y98.303 E.05043
G1 X123.895 Y97.954 E.05021
G1 X125.296 Y97.874 E.0506
G1 X126.681 Y98.068 E.05043
G1 X127.996 Y98.527 E.05022
G1 X129.204 Y99.238 E.05054
G1 X130.249 Y100.17 E.05049
G1 X131.09 Y101.287 E.05042
G1 X131.697 Y102.547 E.05043
G1 X132.046 Y103.895 E.05021
G1 X132.126 Y105.296 E.0506
G1 X131.932 Y106.681 E.05043
G1 X131.473 Y107.996 E.05022
G1 X130.762 Y109.204 E.05054
M73 Q6 S3
G1 X129.83 Y110.249 E.05049
G1 X128.713 Y111.09 E.05042
G1 X127.453 Y111.697 E.05043
G1 X126.105 Y112.046 E.05021
M73 P6 R3
G1 X124.704 Y112.126 E.0506
G1 X123.319 Y111.932 E.05043
G1 X122.004 Y111.473 E.05022
G1 X120.796 Y110.762 E.05054
G1 X119.751 Y109.83 E.05049
G1 X118.91 Y108.713 E.05042
G1 X118.303 Y107.453 E.05043
G1 X117.954 Y106.105 E.05021
G1 X117.874 Y104.704 E.0506
G1 X118.068 Y103.319 E.05043
G1 X118.527 Y102.004 E.05022
G1 X119.178 Y100.899 E.04624
M204 S1000
; printing object pcb_feet_tpu.stl id:0 copy 0
G1 X126.059 Y102.183 F10800
M204 S800
;TYPE:Perimeter
;WIDTH:0.419999
G1 F954.707
G1 X126.155 Y102.212 E.00362
G1 X126.677 Y102.491 E.02134
G1 X127.134 Y102.866 E.02132
G1 X127.509 Y103.323 E.02132
G1 X127.788 Y103.845 E.02134
G1 X127.96 Y104.411 E.02133
G1 X128.018 Y105 E.02134
G1 X127.989 Y105.294 E.01065
G1 X127.96 Y105.589 E.01069
G1 X127.788 Y106.155 E.02133
G1 X127.509 Y106.677 E.02134
G1 X127.134 Y107.134 E.02132
G1 X126.677 Y107.509 E.02132
G1 X126.155 Y107.788 E.02134
G1 X125.589 Y107.96 E.02133
G1 X125 Y108.018 E.02134
G1 X124.411 Y107.96 E.02134
G1 X123.845 Y107.788 E.02133
G1 X123.323 Y107.509 E.02134
G1 X122.866 Y107.134 E.02132
G1 X122.491 Y106.677 E.02132
G1 X122.212 Y106.155 E.02134
G1 X122.04 Y105.589 E.02133
M73 Q7 S3
G1 X121.982 Y105 E.02134
G1 X122.04 Y104.411 E.02134
G1 X122.212 Y103.845 E.02133
G1 X122.491 Y103.323 E.02134
G1 X122.866 Y102.866 E.02132
G1 X123.323 Y102.491 E.02132
G1 X123.845 Y102.212 E.02134
G1 X124.411 Y102.04 E.02133
G1 X125 Y101.982 E.02134
G1 X125.589 Y102.04 E.02134
M73 P7 R3
G1 X126.001 Y102.165 E.01552
M204 S1000
G1 X126.177 Y101.825 F10800
M204 S800
G1 F954.707
G1 X126.3 Y101.862 E.00463
G1 X126.887 Y102.176 E.024
G1 X127.402 Y102.598 E.02401
G1 X127.824 Y103.113 E.02401
G1 X128.138 Y103.7 E.024
G1 X128.331 Y104.337 E.024
G1 X128.397 Y105 E.02402
G1 X128.364 Y105.331 E.01199
G1 X128.331 Y105.663 E.01203
G1 X128.138 Y106.3 E.024
G1 X127.824 Y106.887 E.024
G1 X127.402 Y107.402 E.02401
G1 X126.887 Y107.824 E.02401
G1 X126.3 Y108.138 E.024
G1 X125.663 Y108.331 E.024
G1 X125 Y108.397 E.02402
G1 X124.337 Y108.331 E.02402
G1 X123.7 Y108.138 E.024
G1 X123.113 Y107.824 E.024
G1 X122.598 Y107.402 E.02401
G1 X122.176 Y106.887 E.02401
G1 X121.862 Y106.3 E.024
G1 X121.669 Y105.663 E.024
G1 X121.603 Y105 E.02402
G1 X121.669 Y104.337 E.02402
G1 X121.862 Y103.7 E.024
G1 X122.176 Y103.113 E.024
G1 X122.598 Y102.598 E.02401
G1 X123.113 Y102.176 E.02401
G1 X123.7 Y101.862 E.024
G1 X124.337 Y101.669 E.024
G1 X125 Y101.603 E.02402
G1 X125.663 Y101.669 E.02402
G1 X126.119 Y101.807 E.01718
M204 S1000
G1 X126.295 Y101.466 F10800
M204 S800
G1 F954.707
G1 X126.445 Y101.512 E.00566
G1 X127.098 Y101.861 E.0267
G1 X127.67 Y102.33 E.02667
G1 X128.139 Y102.902 E.02667
G1 X128.488 Y103.555 E.0267
G1 X128.703 Y104.263 E.02668
G1 X128.776 Y105 E.0267
G1 X128.739 Y105.368 E.01334
G1 X128.703 Y105.737 E.01337
G1 X128.488 Y106.445 E.02668
G1 X128.139 Y107.098 E.0267
G1 X127.67 Y107.67 E.02667
G1 X127.098 Y108.139 E.02667
G1 X126.445 Y108.488 E.0267
G1 X125.737 Y108.703 E.02668
G1 X125 Y108.776 E.0267
M73 Q8 S3
G1 X124.263 Y108.703 E.0267
G1 X123.555 Y108.488 E.02668
G1 X122.902 Y108.139 E.0267
G1 X122.33 Y107.67 E.02667
G1 X121.861 Y107.098 E.02667
G1 X121.512 Y106.445 E.0267
G1 X121.297 Y105.737 E.02668
G1 X121.224 Y105 E.0267
M73 P8 R3
G1 X121.297 Y104.263 E.0267
G1 X121.512 Y103.555 E.02668
G1 X121.861 Y102.902 E.0267
G1 X122.33 Y102.33 E.02667
G1 X122.902 Y101.861 E.02667
G1 X123.555 Y101.512 E.0267
G1 X124.263 Y101.297 E.02668
G1 X125 Y101.224 E.0267
G1 X125.737 Y101.297 E.0267
G1 X126.238 Y101.449 E.01888
M204 S1000
G1 X126.413 Y101.108 F10800
M204 S800
G1 F954.707
G1 X126.59 Y101.162 E.00667
G1 X127.308 Y101.546 E.02936
G1 X127.938 Y102.062 E.02936
G1 X128.454 Y102.692 E.02936
G1 X128.838 Y103.41 E.02936
G1 X129.075 Y104.189 E.02936
G1 X129.155 Y105 E.02938
G1 X129.115 Y105.405 E.01467
G1 X129.075 Y105.811 E.01471
G1 X128.838 Y106.59 E.02936
G1 X128.454 Y107.308 E.02936
G1 X127.938 Y107.938 E.02936
G1 X127.308 Y108.454 E.02936
G1 X126.59 Y108.838 E.02936
G1 X125.811 Y109.075 E.02936
G1 X125 Y109.155 E.02938
G1 X124.189 Y109.075 E.02938
G1 X123.41 Y108.838 E.02936
G1 X122.692 Y108.454 E.02936
G1 X122.062 Y107.938 E.02936
G1 X121.546 Y107.308 E.02936
G1 X121.162 Y106.59 E.02936
G1 X120.925 Y105.811 E.02936
G1 X120.845 Y105 E.02938
G1 X120.925 Y104.189 E.02938
G1 X121.162 Y103.41 E.02936
G1 X121.546 Y102.692 E.02936
G1 X122.062 Y102.062 E.02936
G1 X122.692 Y101.546 E.02936
G1 X123.41 Y101.162 E.02936
G1 X124.189 Y100.925 E.02936
G1 X125 Y100.845 E.02938
G1 X125.811 Y100.925 E.02938
G1 X126.356 Y101.091 E.02054
M73 Q9 S3
M204 S1000
G1 X126.532 Y100.75 F10800
M204 S800
;TYPE:External perimeter
G1 F954.707
G1 X126.735 Y100.812 E.00765
G1 X127.519 Y101.231 E.03205
G1 X128.206 Y101.794 E.03203
G1 X128.769 Y102.481 E.03203
G1 X129.188 Y103.265 E.03205
G1 X129.446 Y104.116 E.03206
G1 X129.533 Y105 E.03203
M73 P9 R3
G1 X129.49 Y105.442 E.01601
G1 X129.446 Y105.884 E.01602
G1 X129.188 Y106.735 E.03206
G1 X128.769 Y107.519 E.03205
G1 X128.206 Y108.206 E.03203
G1 X127.519 Y108.769 E.03203
G1 X126.735 Y109.188 E.03205
G1 X125.884 Y109.446 E.03206
G1 X125 Y109.533 E.03203
G1 X124.116 Y109.446 E.03203
G1 X123.265 Y109.188 E.03206
G1 X122.481 Y108.769 E.03205
G1 X121.794 Y108.206 E.03203
G1 X121.231 Y107.519 E.03203
G1 X120.812 Y106.735 E.03205
G1 X120.554 Y105.884 E.03206
G1 X120.467 Y105 E.03203
G1 X120.554 Y104.116 E.03203
G1 X120.812 Y103.265 E.03206
G1 X121.231 Y102.481 E.03205
G1 X121.794 Y101.794 E.03203
G1 X122.481 Y101.231 E.03203
G1 X123.265 Y100.812 E.03205
G1 X124.116 Y100.554 E.03206
G1 X125.001 Y100.467 E.03206
G1 X125.884 Y100.554 E.03199
G1 X126.474 Y100.733 E.02223
M204 S1000
G1 X126.847 Y100.879 F10800
G1 X127.558 Y103.775
M204 S800
;TYPE:Solid infill
;WIDTH:0.425089
G1 F941.992
G1 X126.88 Y103.096 E.03507
G1 X126.487 Y102.774 E.01857
G1 X126.024 Y102.527 E.01918
G1 X125.659 Y102.416 E.01394
G1 X127.584 Y104.341 E.09949
G1 X127.625 Y104.478 E.00523
G1 X127.674 Y104.972 E.01814
G1 X125.028 Y102.326 E.13675
G1 X124.531 Y102.369 E.01823
M73 Q10 S3
G1 X127.631 Y105.469 E.16021
G1 X127.513 Y105.892 E.01605
M73 P10 R3
G1 X124.108 Y102.487 E.17597
G1 X123.976 Y102.527 E.00504
G1 X123.736 Y102.655 E.00994
G1 X127.345 Y106.264 E.18652
G1 X127.226 Y106.487 E.00924
G1 X127.136 Y106.596 E.00517
G1 X123.404 Y102.864 E.19287
G1 X123.107 Y103.107 E.01402
G1 X126.893 Y106.893 E.19566
G1 X126.596 Y107.136 E.01402
G1 X122.864 Y103.404 E.19287
G1 X122.774 Y103.513 E.00517
G1 X122.655 Y103.736 E.00924
G1 X126.264 Y107.345 E.18652
G1 X126.024 Y107.473 E.00994
M73 Q11 S3
G1 X125.892 Y107.513 E.00504
G1 X122.487 Y104.108 E.17597
G1 X122.369 Y104.531 E.01605
M73 P11 R3
G1 X125.469 Y107.631 E.16021
G1 X124.972 Y107.674 E.01823
G1 X122.326 Y105.028 E.13675
G1 X122.375 Y105.522 E.01814
G1 X122.416 Y105.659 E.00523
G1 X124.341 Y107.584 E.09949
G1 X123.976 Y107.473 E.01394
G1 X123.513 Y107.226 E.01918
G1 X123.12 Y106.903 E.01859
G1 X122.442 Y106.225 E.03504
M204 S1000
;LAYER_CHANGE
;Z:0.393312
;HEIGHT:0.193312
;BEFORE_LAYER_CHANGE
G92 E0.0
;0.393312


G1 Z.393 F720
;AFTER_LAYER_CHANGE
;0.393312
; stop printing object pcb_feet_tpu.stl id:0 copy 0
G1 X117.931 Y108.41 F10800
;TYPE:Skirt/Brim
;WIDTH:0.42
G1 F983.99
G1 X117.599 Y107.725 E.02663
G1 X117.211 Y106.234 E.0539
G1 X117.12 Y104.685 E.05428
G1 X117.333 Y103.154 E.05408
G1 X117.838 Y101.698 E.05391
G1 X118.621 Y100.363 E.05414
G1 X119.65 Y99.205 E.0542
G1 X120.884 Y98.273 E.0541
G1 X122.275 Y97.599 E.05407
G1 X123.766 Y97.211 E.0539
M73 Q12 S3
G1 X125.315 Y97.12 E.05428
G1 X126.846 Y97.333 E.05408
G1 X128.302 Y97.838 E.05391
G1 X129.637 Y98.621 E.05414
M73 P12 R3
G1 X130.795 Y99.65 E.0542
G1 X131.727 Y100.884 E.0541
G1 X132.401 Y102.275 E.05407
G1 X132.789 Y103.766 E.0539
G1 X132.88 Y105.315 E.05428
G1 X132.667 Y106.846 E.05408
G1 X132.162 Y108.302 E.05391
G1 X131.379 Y109.637 E.05414
G1 X130.35 Y110.795 E.0542
G1 X129.116 Y111.727 E.0541
G1 X127.725 Y112.401 E.05407
G1 X126.234 Y112.789 E.0539
G1 X124.685 Y112.88 E.05428
G1 X123.154 Y112.667 E.05408
G1 X121.698 Y112.162 E.05391
G1 X120.363 Y111.379 E.05414
G1 X119.205 Y110.35 E.0542
G1 X118.273 Y109.116 E.0541
G1 X117.957 Y108.464 E.02535
G1 X118.295 Y108.3 F10800
G1 F983.99
G1 X117.951 Y107.589 E.02763
G1 X117.582 Y106.17 E.05129
G1 X117.497 Y104.694 E.05172
G1 X117.7 Y103.236 E.0515
M73 Q13 S3
G1 X118.183 Y101.851 E.05132
G1 X118.929 Y100.58 E.05156
G1 X119.91 Y99.478 E.05162
G1 X121.085 Y98.591 E.0515
M73 P13 R3
G1 X122.411 Y97.951 E.05151
G1 X123.83 Y97.582 E.05129
G1 X125.306 Y97.497 E.05172
G1 X126.764 Y97.7 E.0515
G1 X128.149 Y98.183 E.05132
G1 X129.42 Y98.929 E.05156
G1 X130.522 Y99.91 E.05162
G1 X131.409 Y101.085 E.0515
G1 X132.049 Y102.411 E.05151
G1 X132.418 Y103.83 E.05129
G1 X132.503 Y105.306 E.05172
G1 X132.3 Y106.764 E.0515
G1 X131.817 Y108.149 E.05132
G1 X131.071 Y109.42 E.05156
G1 X130.09 Y110.522 E.05162
G1 X128.915 Y111.409 E.0515
G1 X127.589 Y112.049 E.05151
G1 X126.17 Y112.418 E.05129
G1 X124.694 Y112.503 E.05172
G1 X123.236 Y112.3 E.0515
G1 X121.851 Y111.817 E.05132
G1 X120.58 Y111.071 E.05156
G1 X119.478 Y110.09 E.05162
G1 X118.591 Y108.915 E.0515
M73 Q14 S3
G1 X118.321 Y108.354 E.02178
G1 X118.659 Y108.192 F10800
G1 F983.99
G1 X118.303 Y107.453 E.0287
G1 X117.954 Y106.105 E.04871
G1 X117.874 Y104.704 E.04909
M73 P14 R3
G1 X118.068 Y103.319 E.04893
G1 X118.527 Y102.004 E.04873
G1 X119.238 Y100.796 E.04904
G1 X120.17 Y99.751 E.04899
G1 X121.287 Y98.91 E.04892
G1 X122.547 Y98.303 E.04893
G1 X123.895 Y97.954 E.04871
G1 X125.296 Y97.874 E.04909
G1 X126.681 Y98.068 E.04893
G1 X127.996 Y98.527 E.04873
G1 X129.204 Y99.238 E.04904
G1 X130.249 Y100.17 E.04899
G1 X131.09 Y101.287 E.04892
G1 X131.697 Y102.547 E.04893
G1 X132.046 Y103.895 E.04871
G1 X132.126 Y105.296 E.04909
G1 X131.932 Y106.681 E.04893
G1 X131.473 Y107.996 E.04873
G1 X130.762 Y109.204 E.04904
G1 X129.83 Y110.249 E.04899
G1 X128.713 Y111.09 E.04892
G1 X127.453 Y111.697 E.04893
G1 X126.105 Y112.046 E.04871
G1 X124.704 Y112.126 E.04909
G1 X123.319 Y111.932 E.04893
M73 Q15 S3
G1 X122.004 Y111.473 E.04873
G1 X120.796 Y110.762 E.04904
G1 X119.751 Y109.83 E.04899
G1 X118.91 Y108.713 E.04892
M73 P15 R3
G1 X118.685 Y108.246 E.01814
; printing object pcb_feet_tpu.stl id:0 copy 0
G1 X126.04 Y102.23 F10800
M204 S600
;TYPE:Perimeter
;WIDTH:0.449999
G1 F911.731
G1 X126.135 Y102.259 E.00375
G1 X126.648 Y102.533 E.02196
G1 X127.098 Y102.902 E.02197
G1 X127.467 Y103.351 E.02194
G1 X127.741 Y103.864 E.02196
G1 X127.91 Y104.421 E.02198
G1 X127.967 Y105 E.02197
G1 X127.91 Y105.579 E.02197
G1 X127.741 Y106.135 E.02194
G1 X127.467 Y106.648 E.02196
G1 X127.098 Y107.098 E.02197
G1 X126.649 Y107.467 E.02194
G1 X126.136 Y107.741 E.02196
G1 X125.579 Y107.91 E.02198
G1 X125 Y107.967 E.02197
G1 X124.421 Y107.91 E.02197
G1 X123.865 Y107.741 E.02194
G1 X123.352 Y107.467 E.02196
G1 X122.902 Y107.098 E.02197
G1 X122.533 Y106.649 E.02194
G1 X122.259 Y106.136 E.02196
G1 X122.09 Y105.579 E.02198
G1 X122.033 Y105 E.02197
G1 X122.09 Y104.421 E.02197
G1 X122.259 Y103.865 E.02194
G1 X122.533 Y103.352 E.02196
G1 X122.902 Y102.902 E.02197
G1 X123.351 Y102.533 E.02194
G1 X123.864 Y102.259 E.02196
G1 X124.419 Y102.09 E.02191
G1 X125.013 Y102.033 E.02253
G1 X125.578 Y102.089 E.02144
G1 X125.983 Y102.212 E.01598
M204 S1000
G1 X126.168 Y101.842 F10800
M204 S600
G1 F911.731
G1 X126.293 Y101.879 E.00492
G1 X126.877 Y102.192 E.02502
G1 X127.388 Y102.612 E.02497
G1 X127.808 Y103.123 E.02497
G1 X128.121 Y103.707 E.02502
G1 X128.313 Y104.341 E.02501
G1 X128.378 Y105 E.025
G1 X128.313 Y105.659 E.025
G1 X128.121 Y106.293 E.02501
G1 X127.808 Y106.877 E.02502
G1 X127.388 Y107.388 E.02497
G1 X126.877 Y107.808 E.02497
G1 X126.293 Y108.121 E.02502
G1 X125.659 Y108.313 E.02501
M73 Q16 S3
G1 X125 Y108.378 E.025
