; generated by PrusaSlicer 2.9.1 on 2025-10-08 at 16:55:51 UTC


;
;
; 

; external perimeters extrusion width = 0.45mm
; perimeters extrusion width = 0.45mm
; infill extrusion width = 0.45mm
; solid infill extrusion width = 0.45mm
; top infill extrusion width = 0.40mm
; first layer extrusion width = 0.42mm

M73 P0 R4
M73 Q0 S4
M201 X1000 Y1000 Z200 E5000 ; sets maximum accelerations, mm/sec^2
M203 X200 Y200 Z12 E120 ; sets maximum feedrates, mm / sec
M204 S1250 T1250 ; sets acceleration (S) and retract acceleration (R), mm/sec^2
M205 X8.00 Y8.00 Z0.40 E4.50 ; sets the jerk limits, mm/sec
M205 S0 T0 ; sets the minimum extruding and travel feed rate, mm/sec

; printing object pcb_feet_tpu.stl id:0 copy 0
; stop printing object pcb_feet_tpu.stl id:0 copy 0

;TYPE:Custom
M862.3 P "MK3S" ; printer model check
M862.1 P0.4 ; nozzle diameter check
M115 U3.14.1 ; tell printer latest fw version
G90 ; use absolute coordinates
M83 ; extruder relative mode
M104 S238 ; set extruder temp
M140 S50 ; set bed temp
M190 S50 ; wait for bed temp
M109 S238 ; wait for extruder temp
G28 W ; home all without mesh bed level
G80 X116.928 Y96.9283 W16.1471 H16.1468 ; mesh bed levelling

G1 Z0.2 F720
G1 Y-3 F1000 ; go outside print area
G92 E0
G1 X60 E9 F1000 ; intro line
G1 X100 E12.5 F1000 ; intro line
M73 P1 R4
M73 Q1 S4

G92 E0
M221 S95

; Don't change E values below. Excessive value can damage the printer.
M907 E430 ; set extruder motor current
G21 ; set units to millimeters
G90 ; use absolute coordinates
M83 ; use relative distances for extrusion
M900 K0 ; Filament gcode
M107
;LAYER_CHANGE
;Z:0.2
;HEIGHT:0.2
G1 E-2.5 F3600
M73 P2 R4
M73 Q2 S4
G1 Z.2 F720
G1 X118.814 Y100.11 F10800
G1 Z.2 F720
G1 E2.5 F1500
M204 S800
;TYPE:Skirt/Brim
;WIDTH:0.42
G1 F954.706
G1 X119.988 Y98.91 E.06316
G1 X121.147 Y98.121 E.05275
G1 X122.573 Y97.498 E.05855
G1 X124.084 Y97.169 E.05818
G1 X125.623 Y97.14 E.05792
G1 X127.279 Y97.45 E.06339
G1 X128.589 Y97.979 E.05316
G1 X129.89 Y98.814 E.05816
G1 X131.09 Y99.988 E.06316
G1 X131.879 Y101.147 E.05275
G1 X132.502 Y102.573 E.05855
G1 X132.831 Y104.084 E.05818
G1 X132.86 Y105.629 E.05814
G1 X132.55 Y107.279 E.06317
M73 Q3 S4
G1 X132.021 Y108.589 E.05316
G1 X131.186 Y109.89 E.05816
G1 X130.012 Y111.09 E.06316
G1 X128.853 Y111.879 E.05275
M73 P3 R4
G1 X127.427 Y112.502 E.05855
G1 X125.916 Y112.831 E.05818
G1 X124.371 Y112.86 E.05814
G1 X122.721 Y112.55 E.06317
G1 X121.411 Y112.021 E.05316
G1 X120.11 Y111.186 E.05816
G1 X118.91 Y110.012 E.06316
G1 X118.121 Y108.853 E.05275
G1 X117.498 Y107.427 E.05855
G1 X117.169 Y105.916 E.05818
G1 X117.14 Y104.371 E.05814
G1 X117.45 Y102.721 E.06317
G1 X117.979 Y101.411 E.05316
G1 X118.782 Y100.161 E.0559
M204 S1000
G1 X119.098 Y100.365 F10800
M204 S800
G1 F954.706
G1 X119.117 Y100.335 E.00134
G1 X120.228 Y99.202 E.0597
G1 X121.341 Y98.444 E.05067
G1 X122.7 Y97.853 E.05576
G1 X124.139 Y97.542 E.05539
G1 X125.605 Y97.517 E.05517
G1 X127.17 Y97.811 E.05991
G1 X128.428 Y98.32 E.05106
G1 X129.665 Y99.117 E.05537
G1 X130.798 Y100.228 E.0597
G1 X131.556 Y101.341 E.05067
G1 X132.147 Y102.7 E.05576
G1 X132.458 Y104.139 E.05539
G1 X132.483 Y105.611 E.05539
M73 Q4 S4
G1 X132.189 Y107.169 E.05965
G1 X131.68 Y108.428 E.05109
G1 X130.883 Y109.665 E.05537
G1 X129.772 Y110.798 E.0597
M73 P4 R4
G1 X128.659 Y111.556 E.05067
G1 X127.3 Y112.147 E.05576
G1 X125.861 Y112.458 E.05539
G1 X124.389 Y112.483 E.05539
G1 X122.83 Y112.189 E.05969
G1 X121.572 Y111.68 E.05106
G1 X120.335 Y110.883 E.05537
G1 X119.202 Y109.772 E.0597
G1 X118.444 Y108.659 E.05067
G1 X117.853 Y107.3 E.05576
G1 X117.542 Y105.861 E.05539
G1 X117.517 Y104.389 E.05539
G1 X117.811 Y102.831 E.05965
G1 X118.32 Y101.572 E.05109
G1 X119.066 Y100.415 E.0518
M204 S1000
G1 X119.381 Y100.619 F10800
M204 S800
G1 F954.706
G1 X119.42 Y100.56 E.00266
G1 X120.467 Y99.493 E.05625
G1 X121.535 Y98.768 E.04857
G1 X122.827 Y98.208 E.05298
G1 X124.194 Y97.915 E.0526
G1 X125.587 Y97.893 E.05242
G1 X127.06 Y98.172 E.05641
G1 X128.266 Y98.661 E.04896
G1 X129.44 Y99.42 E.0526
G1 X130.507 Y100.467 E.05625
G1 X131.232 Y101.535 E.04857
G1 X131.792 Y102.827 E.05298
G1 X132.085 Y104.194 E.0526
G1 X132.107 Y105.592 E.05261
M73 Q5 S4
G1 X131.828 Y107.06 E.05622
G1 X131.339 Y108.266 E.04896
G1 X130.58 Y109.44 E.0526
G1 X129.533 Y110.507 E.05625
M73 P5 R4
G1 X128.465 Y111.232 E.04857
G1 X127.173 Y111.792 E.05298
G1 X125.806 Y112.085 E.0526
G1 X124.408 Y112.107 E.05261
G1 X122.94 Y111.828 E.05622
G1 X121.734 Y111.339 E.04896
G1 X120.56 Y110.58 E.0526
G1 X119.493 Y109.533 E.05625
G1 X118.768 Y108.465 E.04857
G1 X118.208 Y107.173 E.05298
G1 X117.915 Y105.806 E.0526
G1 X117.893 Y104.408 E.05261
G1 X118.172 Y102.94 E.05622
G1 X118.661 Y101.734 E.04896
G1 X119.349 Y100.67 E.04767
M204 S1000
G1 E-2.5 F3600
; printing object pcb_feet_tpu.stl id:0 copy 0
G1 X122.031 Y105.495 F10800
G1 E2.5 F1500
M204 S800
;TYPE:Perimeter
;WIDTH:0.419999
G1 F954.707
G1 X121.982 Y105 E.01872
G1 X122.04 Y104.411 E.02227
G1 X122.212 Y103.845 E.02226
G1 X122.491 Y103.323 E.02227
G1 X122.866 Y102.866 E.02224
G1 X123.323 Y102.491 E.02224
G1 X123.845 Y102.212 E.02227
G1 X124.411 Y102.04 E.02226
G1 X125.001 Y101.982 E.02231
G1 X125.589 Y102.04 E.02223
G1 X126.155 Y102.212 E.02226
G1 X126.677 Y102.491 E.02227
G1 X127.134 Y102.866 E.02224
G1 X127.509 Y103.323 E.02224
G1 X127.788 Y103.845 E.02227
G1 X127.96 Y104.411 E.02226
G1 X128.018 Y105 E.02227
G1 X127.989 Y105.294 E.01112
G1 X127.96 Y105.589 E.01115
G1 X127.788 Y106.155 E.02226
G1 X127.509 Y106.677 E.02227
G1 X127.134 Y107.134 E.02224
G1 X126.677 Y107.509 E.02224
G1 X126.155 Y107.788 E.02227
M73 Q6 S4
G1 X125.589 Y107.96 E.02226
G1 X125 Y108.018 E.02227
G1 X124.411 Y107.96 E.02227
G1 X123.845 Y107.788 E.02226
G1 X123.323 Y107.509 E.02227
G1 X122.866 Y107.134 E.02224
G1 X122.491 Y106.677 E.02224
G1 X122.212 Y106.155 E.02227
G1 X122.04 Y105.589 E.02226
M73 P6 R4
G1 X122.037 Y105.555 E.00128
M204 S1000
G1 X121.661 Y105.588 F10800
M204 S800
G1 F954.707
G1 X121.603 Y105 E.02223
G1 X121.669 Y104.337 E.02507
G1 X121.862 Y103.7 E.02504
G1 X122.176 Y103.113 E.02505
G1 X122.598 Y102.598 E.02505
G1 X123.113 Y102.176 E.02505
G1 X123.7 Y101.862 E.02505
G1 X124.337 Y101.669 E.02504
G1 X125.001 Y101.603 E.02511
G1 X125.663 Y101.669 E.02503
G1 X126.3 Y101.862 E.02504
G1 X126.887 Y102.176 E.02505
G1 X127.402 Y102.598 E.02505
G1 X127.824 Y103.113 E.02505
G1 X128.138 Y103.7 E.02505
G1 X128.331 Y104.337 E.02504
G1 X128.397 Y105 E.02507
G1 X128.364 Y105.331 E.01252
G1 X128.331 Y105.663 E.01255
G1 X128.138 Y106.3 E.02504
G1 X127.824 Y106.887 E.02505
G1 X127.402 Y107.402 E.02505
G1 X126.887 Y107.824 E.02505
G1 X126.3 Y108.138 E.02505
G1 X125.663 Y108.331 E.02504
G1 X125 Y108.397 E.02507
G1 X124.337 Y108.331 E.02507
G1 X123.7 Y108.138 E.02504
G1 X123.113 Y107.824 E.02505
G1 X122.598 Y107.402 E.02505
G1 X122.176 Y106.887 E.02505
G1 X121.862 Y106.3 E.02505
G1 X121.669 Y105.663 E.02504
G1 X121.667 Y105.647 E.00061
M204 S1000
G1 X121.292 Y105.68 F10800
M204 S800
G1 F954.707
G1 X121.225 Y105 E.02571
G1 X121.297 Y104.263 E.02786
G1 X121.512 Y103.555 E.02784
G1 X121.861 Y102.902 E.02786
G1 X122.33 Y102.33 E.02783
G1 X122.902 Y101.861 E.02783
G1 X123.555 Y101.512 E.02786
G1 X124.263 Y101.297 E.02784
G1 X125.001 Y101.225 E.0279
G1 X125.737 Y101.297 E.02782
G1 X126.445 Y101.512 E.02784
G1 X127.098 Y101.861 E.02786
G1 X127.67 Y102.33 E.02783
G1 X128.139 Y102.902 E.02783
G1 X128.488 Y103.555 E.02786
G1 X128.703 Y104.263 E.02784
G1 X128.775 Y105 E.02786
G1 X128.739 Y105.368 E.01391
G1 X128.703 Y105.737 E.01395
G1 X128.488 Y106.445 E.02784
G1 X128.139 Y107.098 E.02786
G1 X127.67 Y107.67 E.02783
G1 X127.098 Y108.139 E.02783
G1 X126.445 Y108.488 E.02786
G1 X125.737 Y108.703 E.02784
G1 X125 Y108.775 E.02786
G1 X124.263 Y108.703 E.02786
M73 Q7 S4
G1 X123.555 Y108.488 E.02784
G1 X122.902 Y108.139 E.02786
G1 X122.33 Y107.67 E.02783
G1 X121.861 Y107.098 E.02783
G1 X121.512 Y106.445 E.02786
G1 X121.298 Y105.739 E.02776
M204 S1000
G1 X120.922 Y105.772 F10800
M204 S800
G1 F954.707
M73 P7 R4
G1 X120.846 Y105 E.02919
G1 X120.925 Y104.19 E.03062
G1 X121.162 Y103.41 E.03067
G1 X121.546 Y102.692 E.03064
G1 X122.062 Y102.062 E.03064
G1 X122.692 Y101.546 E.03064
G1 X123.41 Y101.162 E.03064
G1 X124.189 Y100.925 E.03064
G1 X125.001 Y100.846 E.0307
G1 X125.81 Y100.925 E.03058
G1 X126.59 Y101.162 E.03067
G1 X127.308 Y101.546 E.03064
G1 X127.938 Y102.062 E.03064
G1 X128.454 Y102.692 E.03064
G1 X128.838 Y103.41 E.03064
G1 X129.075 Y104.189 E.03064
G1 X129.154 Y105 E.03066
G1 X129.114 Y105.405 E.01531
G1 X129.075 Y105.81 E.01531
G1 X128.838 Y106.59 E.03067
G1 X128.454 Y107.308 E.03064
G1 X127.938 Y107.938 E.03064
G1 X127.308 Y108.454 E.03064
G1 X126.59 Y108.838 E.03064
G1 X125.811 Y109.075 E.03064
G1 X125 Y109.154 E.03066
G1 X124.19 Y109.075 E.03062
G1 X123.41 Y108.838 E.03067
G1 X122.692 Y108.454 E.03064
G1 X122.062 Y107.938 E.03064
G1 X121.546 Y107.308 E.03064
G1 X121.162 Y106.59 E.03064
G1 X120.932 Y105.831 E.02984
M204 S1000
G1 X120.552 Y105.864 F10800
M204 S800
;TYPE:External perimeter
G1 F954.707
G1 X120.467 Y105 E.03267
G1 X120.554 Y104.116 E.03342
G1 X120.812 Y103.265 E.03346
G1 X121.231 Y102.481 E.03345
G1 X121.794 Y101.795 E.03339
G1 X122.481 Y101.231 E.03344
G1 X123.265 Y100.812 E.03345
G1 X124.116 Y100.554 E.03346
G1 X125.001 Y100.467 E.03346
G1 X125.884 Y100.554 E.03338
G1 X126.735 Y100.812 E.03346
G1 X127.519 Y101.231 E.03345
G1 X128.205 Y101.794 E.03339
G1 X128.769 Y102.481 E.03344
G1 X129.188 Y103.265 E.03345
G1 X129.446 Y104.116 E.03346
G1 X129.533 Y105 E.03342
G1 X129.49 Y105.442 E.01671
M73 Q8 S4
G1 X129.446 Y105.884 E.01671
G1 X129.188 Y106.735 E.03346
G1 X128.769 Y107.519 E.03345
G1 X128.206 Y108.205 E.03339
G1 X127.519 Y108.769 E.03344
G1 X126.735 Y109.188 E.03345
G1 X125.884 Y109.446 E.03346
M73 P8 R4
G1 X125 Y109.533 E.03342
G1 X124.116 Y109.446 E.03342
G1 X123.265 Y109.188 E.03346
G1 X122.481 Y108.769 E.03345
G1 X121.795 Y108.206 E.03339
G1 X121.231 Y107.519 E.03344
G1 X120.812 Y106.735 E.03345
G1 X120.565 Y105.923 E.03193
M204 S1000
G1 X120.519 Y105.525 F10800
G1 E-2.5 F3600
G1 X127.558 Y103.775 F10800
G1 E2.5 F1500
M204 S800
;TYPE:Solid infill
;WIDTH:0.425065
G1 F942.051
G1 X126.879 Y103.097 E.03659
G1 X126.487 Y102.774 E.01937
G1 X126.024 Y102.527 E.02001
G1 X125.659 Y102.416 E.01455
G1 X127.584 Y104.341 E.10381
G1 X127.625 Y104.478 E.00545
G1 X127.674 Y104.972 E.01893
G1 X125.028 Y102.326 E.14268
G1 X124.531 Y102.37 E.01903
G1 X127.63 Y105.469 E.16711
G1 X127.513 Y105.892 E.01673
G1 X124.108 Y102.487 E.18361
G1 X123.976 Y102.527 E.00526
G1 X123.736 Y102.655 E.01037
G1 X127.345 Y106.264 E.19461
G1 X127.226 Y106.487 E.00964
G1 X127.136 Y106.596 E.00539
G1 X123.404 Y102.864 E.20125
G1 X123.107 Y103.107 E.01463
M73 Q9 S4
G1 X126.893 Y106.893 E.20416
M73 P9 R4
G1 X126.596 Y107.136 E.01463
G1 X122.864 Y103.404 E.20125
G1 X122.774 Y103.513 E.00539
G1 X122.655 Y103.736 E.00964
G1 X126.264 Y107.345 E.19461
G1 X126.024 Y107.473 E.01037
G1 X125.892 Y107.513 E.00526
G1 X122.487 Y104.108 E.18361
G1 X122.37 Y104.531 E.01673
G1 X125.469 Y107.63 E.16711
G1 X124.972 Y107.674 E.01903
G1 X122.326 Y105.028 E.14268
G1 X122.375 Y105.522 E.01893
G1 X122.416 Y105.659 E.00545
G1 X124.341 Y107.584 E.10381
G1 X123.976 Y107.473 E.01455
G1 X123.513 Y107.226 E.02001
G1 X123.12 Y106.903 E.0194
G1 X122.442 Y106.225 E.03656
M204 S1000
M106 S76.5
;LAYER_CHANGE
;Z:0.393312
;HEIGHT:0.193312
;BEFORE_LAYER_CHANGE
G92 E0.0
;0.393312


G1 E-2.5 F3600
G1 Z.393 F720
;AFTER_LAYER_CHANGE
;0.393312
; stop printing object pcb_feet_tpu.stl id:0 copy 0
G1 Z.393
G1 X117.85 Y108.232 F10800
G1 E2.5 F1500
M73 Q10 S4
;TYPE:Skirt/Brim
;WIDTH:0.42
G1 F983.989
G1 X117.498 Y107.427 E.03207
G1 X117.169 Y105.916 E.05645
G1 X117.14 Y104.371 E.05641
G1 X117.45 Y102.721 E.06129
M73 P10 R4
G1 X117.979 Y101.411 E.05157
G1 X118.814 Y100.11 E.05643
G1 X119.988 Y98.91 E.06128
G1 X121.147 Y98.121 E.05118
G1 X122.573 Y97.498 E.05681
G1 X124.084 Y97.169 E.05645
G1 X125.623 Y97.14 E.05619
G1 X127.279 Y97.45 E.0615
G1 X128.589 Y97.979 E.05157
G1 X129.89 Y98.814 E.05643
G1 X131.09 Y99.988 E.06128
G1 X131.879 Y101.147 E.05118
G1 X132.502 Y102.573 E.05681
G1 X132.831 Y104.084 E.05645
G1 X132.86 Y105.629 E.05641
G1 X132.55 Y107.279 E.06129
G1 X132.021 Y108.589 E.05157
G1 X131.186 Y109.89 E.05643
G1 X130.012 Y111.09 E.06128
G1 X128.853 Y111.879 E.05118
G1 X127.427 Y112.502 E.05681
G1 X125.916 Y112.831 E.05645
G1 X124.371 Y112.86 E.05641
G1 X122.721 Y112.55 E.06129
G1 X121.411 Y112.021 E.05157
G1 X120.11 Y111.186 E.05643
G1 X118.91 Y110.012 E.06128
M73 Q11 S4
G1 X118.121 Y108.853 E.05118
G1 X117.874 Y108.287 E.02254
G1 X118.217 Y108.137 F10800
G1 F983.989
G1 X117.853 Y107.3 E.03332
G1 X117.542 Y105.861 E.05374
G1 X117.517 Y104.389 E.05374
M73 P11 R4
G1 X117.811 Y102.831 E.05788
G1 X118.32 Y101.572 E.04957
G1 X119.117 Y100.335 E.05372
G1 X120.228 Y99.202 E.05793
G1 X121.341 Y98.444 E.04916
G1 X122.7 Y97.853 E.0541
G1 X124.139 Y97.542 E.05374
G1 X125.605 Y97.517 E.05352
G1 X127.17 Y97.811 E.05813
G1 X128.428 Y98.32 E.04954
G1 X129.665 Y99.117 E.05372
G1 X130.798 Y100.228 E.05793
G1 X131.556 Y101.341 E.04916
G1 X132.147 Y102.7 E.0541
G1 X132.458 Y104.139 E.05374
G1 X132.483 Y105.611 E.05374
G1 X132.189 Y107.169 E.05788
G1 X131.68 Y108.428 E.04957
G1 X130.883 Y109.665 E.05372
G1 X129.772 Y110.798 E.05793
G1 X128.659 Y111.556 E.04916
G1 X127.3 Y112.147 E.0541
G1 X125.861 Y112.458 E.05374
G1 X124.389 Y112.483 E.05374
G1 X122.83 Y112.189 E.05792
G1 X121.572 Y111.68 E.04954
G1 X120.335 Y110.883 E.05372
G1 X119.202 Y109.772 E.05793
G1 X118.444 Y108.659 E.04916
M73 Q12 S4
G1 X118.241 Y108.192 E.01859
G1 X118.585 Y108.043 F10800
G1 F983.989
G1 X118.208 Y107.173 E.03461
G1 X117.915 Y105.806 E.05104
G1 X117.893 Y104.408 E.05104
M73 P12 R4
G1 X118.172 Y102.94 E.05455
G1 X118.661 Y101.734 E.04751
G1 X119.42 Y100.56 E.05103
G1 X120.467 Y99.493 E.05457
G1 X121.535 Y98.768 E.04712
G1 X122.827 Y98.208 E.0514
G1 X124.194 Y97.915 E.05104
G1 X125.587 Y97.893 E.05086
G1 X127.06 Y98.172 E.05473
G1 X128.266 Y98.661 E.04751
G1 X129.44 Y99.42 E.05103
G1 X130.507 Y100.467 E.05457
G1 X131.232 Y101.535 E.04712
G1 X131.792 Y102.827 E.0514
G1 X132.085 Y104.194 E.05104
G1 X132.107 Y105.592 E.05104
G1 X131.828 Y107.06 E.05455
G1 X131.339 Y108.266 E.04751
G1 X130.58 Y109.44 E.05103
G1 X129.533 Y110.507 E.05457
G1 X128.465 Y111.232 E.04712
G1 X127.173 Y111.792 E.0514
G1 X125.806 Y112.085 E.05104
G1 X124.408 Y112.107 E.05104
G1 X122.94 Y111.828 E.05455
G1 X121.734 Y111.339 E.04751
G1 X120.56 Y110.58 E.05103
G1 X119.493 Y109.533 E.05457
G1 X118.768 Y108.465 E.04712
G1 X118.609 Y108.098 E.0146
G1 E-2.5 F3600
M73 Q13 S4
; printing object pcb_feet_tpu.stl id:0 copy 0
G1 X122.081 Y105.488 F10800
G1 E2.5 F1500
M204 S600
;TYPE:Perimeter
;WIDTH:0.449999
G1 F911.73
M73 P13 R4
G1 X122.033 Y105 E.01932
G1 X122.09 Y104.421 E.02292
G1 X122.259 Y103.865 E.0229
G1 X122.533 Y103.352 E.02291
G1 X122.902 Y102.902 E.02293
G1 X123.351 Y102.533 E.0229
G1 X123.864 Y102.259 E.02291
G1 X124.465 Y102.077 E.02474
G1 X124.98 Y102.029 E.02038
G1 X125.577 Y102.089 E.02364
G1 X126.135 Y102.259 E.02298
G1 X126.648 Y102.533 E.02291
G1 X127.098 Y102.902 E.02293
G1 X127.467 Y103.351 E.0229
G1 X127.741 Y103.864 E.02291
G1 X127.91 Y104.421 E.02293
G1 X127.967 Y105 E.02292
G1 X127.91 Y105.579 E.02292
G1 X127.741 Y106.135 E.0229
G1 X127.467 Y106.648 E.02291
G1 X127.098 Y107.098 E.02293
G1 X126.649 Y107.467 E.0229
G1 X126.136 Y107.741 E.02291
G1 X125.579 Y107.91 E.02293
G1 X125 Y107.967 E.02292
G1 X124.421 Y107.91 E.02292
G1 X123.865 Y107.741 E.0229
G1 X123.352 Y107.467 E.02291
G1 X122.902 Y107.098 E.02293
G1 X122.533 Y106.649 E.0229
G1 X122.259 Y106.136 E.02291
G1 X122.09 Y105.579 E.02293
G1 X122.087 Y105.548 E.00123
M204 S1000
G1 X121.68 Y105.588 F10800
M204 S600
G1 F911.73
G1 X121.622 Y105 E.02328
G1 X121.687 Y104.341 E.02609
G1 X121.879 Y103.707 E.0261
G1 X122.192 Y103.123 E.02611
G1 X122.612 Y102.612 E.02606
G1 X123.123 Y102.192 E.02606
G1 X123.707 Y101.879 E.02611
G1 X124.375 Y101.677 E.0275
G1 X124.991 Y101.62 E.02437
G1 X125.658 Y101.687 E.02641
G1 X126.293 Y101.879 E.02614
