; generated by PrusaSlicer 2.9.1 on 2025-10-08 at 19:13:12 UTC


;
;
; 

; external perimeters extrusion width = 0.45mm
; perimeters extrusion width = 0.45mm
; infill extrusion width = 0.45mm
; solid infill extrusion width = 0.45mm
; top infill extrusion width = 0.40mm
; first layer extrusion width = 0.42mm

M73 P0 R4
M73 Q0 S4
M201 X1000 Y1000 Z200 E5000 ; sets maximum accelerations, mm/sec^2
M203 X200 Y200 Z12 E120 ; sets maximum feedrates, mm / sec
M204 S1250 T1250 ; sets acceleration (S) and retract acceleration (R), mm/sec^2
M205 X8.00 Y8.00 Z0.40 E4.50 ; sets the jerk limits, mm/sec
M205 S0 T0 ; sets the minimum extruding and travel feed rate, mm/sec

; printing object pcb_feet_tpu.stl id:0 copy 0
; stop printing object pcb_feet_tpu.stl id:0 copy 0

;TYPE:Custom
M862.3 P "MK3S" ; printer model check
M862.1 P0.4 ; nozzle diameter check
M115 U3.14.1 ; tell printer latest fw version
G90 ; use absolute coordinates
M83 ; extruder relative mode
M104 S230 ; set extruder temp
M140 S50 ; set bed temp
M190 S50 ; wait for bed temp
M109 S230 ; wait for extruder temp
G28 W ; home all without mesh bed level
G80 X116.925 Y96.9253 W16.1495 H16.1495 ; mesh bed levelling

G1 Z0.2 F720
G1 Y-3 F1000 ; go outside print area
G92 E0
G1 X60 E9 F1000 ; intro line
G1 X100 E12.5 F1000 ; intro line
M73 P1 R4
M73 Q1 S4

G92 E0
M221 S95

; Don't change E values below. Excessive value can damage the printer.
M907 E430 ; set extruder motor current
G21 ; set units to millimeters
G90 ; use absolute coordinates
M83 ; use relative distances for extrusion
M900 K0 ; Filament gcode
M107
;LAYER_CHANGE
;Z:0.2
;HEIGHT:0.2
G1 X118.621 Y100.363 F10800
M73 P2 R4
M73 Q2 S4
G1 Z.2 F720
M204 S800
;TYPE:Skirt/Brim
;WIDTH:0.42
G1 F954.706
G1 X119.65 Y99.205 E.0544
G1 X120.884 Y98.273 E.0543
G1 X122.275 Y97.599 E.05428
G1 X123.766 Y97.211 E.0541
G1 X125.315 Y97.12 E.05449
G1 X126.846 Y97.333 E.05428
G1 X128.302 Y97.838 E.05412
M73 Q3 S4
G1 X129.637 Y98.621 E.05435
G1 X130.795 Y99.65 E.0544
G1 X131.727 Y100.884 E.0543
M73 P3 R4
G1 X132.401 Y102.275 E.05428
G1 X132.789 Y103.766 E.0541
G1 X132.88 Y105.315 E.05449
G1 X132.667 Y106.846 E.05428
G1 X132.162 Y108.302 E.05412
G1 X131.379 Y109.637 E.05435
G1 X130.35 Y110.795 E.0544
G1 X129.116 Y111.727 E.0543
G1 X127.725 Y112.401 E.05428
G1 X126.234 Y112.789 E.0541
G1 X124.685 Y112.88 E.05449
G1 X123.154 Y112.667 E.05428
G1 X121.698 Y112.162 E.05412
G1 X120.363 Y111.379 E.05435
G1 X119.205 Y110.35 E.0544
G1 X118.273 Y109.116 E.0543
G1 X117.599 Y107.725 E.05428
G1 X117.211 Y106.234 E.0541
G1 X117.12 Y104.685 E.05449
G1 X117.333 Y103.154 E.05428
G1 X117.838 Y101.698 E.05412
G1 X118.591 Y100.415 E.05224
M204 S1000
G1 X118.915 Y100.605 F10800
M204 S800
G1 F954.706
M73 Q4 S4
G1 X118.929 Y100.58 E.00101
G1 X119.91 Y99.478 E.05181
G1 X121.085 Y98.591 E.0517
G1 X122.411 Y97.951 E.0517
G1 X123.83 Y97.582 E.05149
G1 X125.306 Y97.497 E.05192
M73 P4 R4
G1 X126.764 Y97.7 E.05169
G1 X128.149 Y98.183 E.05151
G1 X129.42 Y98.929 E.05175
G1 X130.522 Y99.91 E.05181
G1 X131.409 Y101.085 E.0517
G1 X132.049 Y102.411 E.0517
G1 X132.418 Y103.83 E.05149
G1 X132.503 Y105.306 E.05192
G1 X132.3 Y106.764 E.05169
G1 X131.817 Y108.149 E.05151
G1 X131.071 Y109.42 E.05175
G1 X130.09 Y110.522 E.05181
G1 X128.915 Y111.409 E.0517
G1 X127.589 Y112.049 E.0517
G1 X126.17 Y112.418 E.05149
G1 X124.694 Y112.503 E.05192
G1 X123.236 Y112.3 E.05169
G1 X121.851 Y111.817 E.05151
G1 X120.58 Y111.071 E.05175
G1 X119.478 Y110.09 E.05181
G1 X118.591 Y108.915 E.0517
G1 X117.951 Y107.589 E.0517
G1 X117.582 Y106.17 E.05149
G1 X117.497 Y104.694 E.05192
G1 X117.7 Y103.236 E.05169
M73 Q5 S4
G1 X118.183 Y101.851 E.05151
G1 X118.884 Y100.657 E.04862
M204 S1000
G1 X119.208 Y100.847 F10800
M204 S800
G1 F954.706
M73 P5 R4
G1 X119.238 Y100.796 E.00208
G1 X120.17 Y99.751 E.04917
G1 X121.287 Y98.91 E.0491
G1 X122.547 Y98.303 E.04911
G1 X123.895 Y97.954 E.0489
G1 X125.296 Y97.874 E.04928
G1 X126.681 Y98.068 E.04911
G1 X127.996 Y98.527 E.04891
G1 X129.204 Y99.238 E.04922
G1 X130.249 Y100.17 E.04917
G1 X131.09 Y101.287 E.0491
G1 X131.697 Y102.547 E.04911
G1 X132.046 Y103.895 E.0489
G1 X132.126 Y105.296 E.04928
G1 X131.932 Y106.681 E.04911
G1 X131.473 Y107.996 E.04891
G1 X130.762 Y109.204 E.04922
G1 X129.83 Y110.249 E.04917
G1 X128.713 Y111.09 E.0491
G1 X127.453 Y111.697 E.04911
G1 X126.105 Y112.046 E.0489
G1 X124.704 Y112.126 E.04928
G1 X123.319 Y111.932 E.04911
G1 X122.004 Y111.473 E.04891
G1 X120.796 Y110.762 E.04922
G1 X119.751 Y109.83 E.04917
G1 X118.91 Y108.713 E.0491
G1 X118.303 Y107.453 E.04911
M73 Q6 S4
G1 X117.954 Y106.105 E.0489
G1 X117.874 Y104.704 E.04928
G1 X118.068 Y103.319 E.04911
G1 X118.527 Y102.004 E.04891
M73 P6 R4
G1 X119.178 Y100.899 E.04504
M204 S1000
; printing object pcb_feet_tpu.stl id:0 copy 0
G1 X125.786 Y108.294 F10800
M204 S800
;TYPE:Perimeter
;WIDTH:0.419999
G1 F954.707
G1 X125.663 Y108.331 E.00451
G1 X125 Y108.397 E.0234
G1 X124.337 Y108.331 E.0234
G1 X123.7 Y108.138 E.02337
G1 X123.113 Y107.824 E.02338
G1 X122.598 Y107.402 E.02338
G1 X122.176 Y106.887 E.02338
G1 X121.862 Y106.3 E.02338
G1 X121.669 Y105.663 E.02337
G1 X121.603 Y105 E.0234
G1 X121.669 Y104.337 E.0234
G1 X121.862 Y103.7 E.02337
G1 X122.176 Y103.113 E.02338
G1 X122.598 Y102.598 E.02338
G1 X123.113 Y102.176 E.02338
G1 X123.7 Y101.862 E.02338
G1 X124.337 Y101.669 E.02337
G1 X125 Y101.603 E.0234
G1 X125.663 Y101.669 E.0234
G1 X126.3 Y101.862 E.02337
G1 X126.887 Y102.176 E.02338
G1 X127.402 Y102.598 E.02338
G1 X127.824 Y103.113 E.02338
G1 X128.138 Y103.7 E.02338
G1 X128.331 Y104.337 E.02337
G1 X128.397 Y105 E.0234
G1 X128.364 Y105.331 E.01168
G1 X128.331 Y105.663 E.01172
G1 X128.138 Y106.3 E.02337
G1 X127.824 Y106.887 E.02338
G1 X127.402 Y107.402 E.02338
G1 X126.887 Y107.824 E.02338
G1 X126.3 Y108.138 E.02338
G1 X125.843 Y108.277 E.01677
M204 S1000
G1 X125.886 Y108.658 F10800
M204 S800
G1 F954.707
G1 X125.737 Y108.703 E.00547
G1 X125 Y108.776 E.02601
G1 X124.263 Y108.703 E.02601
G1 X123.555 Y108.488 E.02598
G1 X122.902 Y108.139 E.026
G1 X122.33 Y107.67 E.02598
G1 X121.861 Y107.098 E.02598
G1 X121.512 Y106.445 E.026
G1 X121.297 Y105.737 E.02598
G1 X121.224 Y105 E.02601
G1 X121.297 Y104.263 E.02601
G1 X121.512 Y103.555 E.02598
G1 X121.861 Y102.902 E.026
M73 Q7 S4
G1 X122.33 Y102.33 E.02598
G1 X122.902 Y101.861 E.02598
G1 X123.555 Y101.512 E.026
G1 X124.263 Y101.297 E.02598
G1 X125 Y101.224 E.02601
G1 X125.737 Y101.297 E.02601
G1 X126.445 Y101.512 E.02598
G1 X127.098 Y101.861 E.026
M73 P7 R4
G1 X127.67 Y102.33 E.02598
G1 X128.139 Y102.902 E.02598
G1 X128.488 Y103.555 E.026
G1 X128.703 Y104.263 E.02598
G1 X128.776 Y105 E.02601
G1 X128.739 Y105.368 E.01299
G1 X128.703 Y105.737 E.01302
G1 X128.488 Y106.445 E.02598
G1 X128.139 Y107.098 E.026
G1 X127.67 Y107.67 E.02598
G1 X127.098 Y108.139 E.02598
G1 X126.445 Y108.488 E.026
G1 X125.944 Y108.64 E.01839
M204 S1000
G1 X125.987 Y109.021 F10800
M204 S800
G1 F954.707
G1 X125.811 Y109.075 E.00646
G1 X125 Y109.155 E.02862
G1 X124.189 Y109.075 E.02862
G1 X123.41 Y108.838 E.02859
G1 X122.692 Y108.454 E.02859
G1 X122.062 Y107.938 E.0286
G1 X121.546 Y107.308 E.0286
G1 X121.162 Y106.59 E.02859
G1 X120.925 Y105.811 E.02859
G1 X120.845 Y105 E.02862
G1 X120.925 Y104.189 E.02862
G1 X121.162 Y103.41 E.02859
G1 X121.546 Y102.692 E.02859
G1 X122.062 Y102.062 E.0286
G1 X122.692 Y101.546 E.0286
G1 X123.41 Y101.162 E.02859
G1 X124.189 Y100.925 E.02859
G1 X125 Y100.845 E.02862
G1 X125.811 Y100.925 E.02862
G1 X126.59 Y101.162 E.02859
G1 X127.308 Y101.546 E.02859
G1 X127.938 Y102.062 E.0286
G1 X128.454 Y102.692 E.0286
G1 X128.838 Y103.41 E.02859
G1 X129.075 Y104.189 E.02859
G1 X129.155 Y105 E.02862
G1 X129.115 Y105.405 E.01429
G1 X129.075 Y105.811 E.01433
G1 X128.838 Y106.59 E.02859
G1 X128.454 Y107.308 E.02859
G1 X127.938 Y107.938 E.0286
G1 X127.308 Y108.454 E.0286
G1 X126.59 Y108.838 E.02859
G1 X126.044 Y109.004 E.02004
M73 Q8 S4
M204 S1000
G1 X126.088 Y109.385 F10800
M204 S800
;TYPE:External perimeter
G1 F954.707
G1 X125.884 Y109.446 E.00748
G1 X125 Y109.533 E.03119
G1 X124.116 Y109.446 E.03119
G1 X123.265 Y109.188 E.03123
G1 X122.481 Y108.769 E.03122
G1 X121.794 Y108.206 E.03119
G1 X121.231 Y107.519 E.03119
M73 P8 R4
G1 X120.812 Y106.735 E.03122
G1 X120.554 Y105.884 E.03123
G1 X120.467 Y105 E.03119
G1 X120.554 Y104.116 E.03119
G1 X120.812 Y103.265 E.03123
G1 X121.231 Y102.481 E.03122
G1 X121.794 Y101.794 E.03119
G1 X122.481 Y101.231 E.03119
G1 X123.265 Y100.812 E.03122
G1 X124.116 Y100.554 E.03123
G1 X125.001 Y100.467 E.03123
G1 X125.884 Y100.554 E.03116
G1 X126.735 Y100.812 E.03123
G1 X127.519 Y101.231 E.03122
G1 X128.206 Y101.794 E.03119
G1 X128.769 Y102.481 E.03119
G1 X129.188 Y103.265 E.03122
G1 X129.446 Y104.116 E.03123
G1 X129.533 Y105 E.03119
M73 Q8 S3
G1 X129.49 Y105.442 E.01559
G1 X129.446 Y105.884 E.0156
G1 X129.188 Y106.735 E.03123
M73 P8 R3
G1 X128.769 Y107.519 E.03122
G1 X128.206 Y108.206 E.03119
G1 X127.519 Y108.769 E.03119
G1 X126.735 Y109.188 E.03122
G1 X126.145 Y109.367 E.02165
M204 S1000
G1 X125.754 Y109.452 F10800
G1 X127.861 Y103.542
M204 S800
;TYPE:Solid infill
;WIDTH:0.424705
G1 F942.939
G1 X127.149 Y102.83 E.0358
G1 X126.698 Y102.459 E.02076
G1 X126.169 Y102.177 E.02131
G1 X125.864 Y102.084 E.01134
G1 X127.916 Y104.136 E.10318
G1 X127.997 Y104.404 E.00995
G1 X128.036 Y104.796 E.01401
G1 X125.204 Y101.964 E.1424
G1 X125 Y101.944 E.00729
M73 Q9 S3
G1 X124.676 Y101.976 E.01158
G1 X128.024 Y105.324 E.16835
G1 X127.997 Y105.596 E.00972
M73 P9 R3
G1 X127.941 Y105.781 E.00687
G1 X124.219 Y102.059 E.18715
G1 X123.831 Y102.177 E.01442
G1 X123.808 Y102.189 E.00092
G1 X127.811 Y106.192 E.20128
G1 X127.623 Y106.543 E.01416
G1 X123.457 Y102.377 E.20948
G1 X123.302 Y102.459 E.00623
G1 X123.136 Y102.596 E.00765
G1 X127.404 Y106.864 E.21461
G1 X127.161 Y107.161 E.01364
G1 X122.839 Y102.839 E.21732
G1 X122.596 Y103.136 E.01364
G1 X126.864 Y107.404 E.21461
G1 X126.698 Y107.541 E.00765
M73 Q10 S3
G1 X126.543 Y107.623 E.00623
G1 X122.377 Y103.457 E.20948
G1 X122.189 Y103.809 E.01419
M73 P10 R3
G1 X126.191 Y107.811 E.20123
G1 X125.781 Y107.941 E.01529
G1 X122.059 Y104.219 E.18715
G1 X122.003 Y104.404 E.00687
G1 X121.976 Y104.676 E.00972
G1 X125.324 Y108.024 E.16835
G1 X125 Y108.056 E.01158
G1 X124.796 Y108.036 E.00729
G1 X121.964 Y105.204 E.1424
G1 X122.003 Y105.596 E.01401
G1 X122.084 Y105.864 E.00995
G1 X124.136 Y107.916 E.10318
G1 X123.831 Y107.823 E.01134
G1 X123.302 Y107.541 E.02131
G1 X122.85 Y107.17 E.02079
G1 X122.139 Y106.458 E.03578
M204 S1000
;LAYER_CHANGE
;Z:0.3
;HEIGHT:0.1
;BEFORE_LAYER_CHANGE
G92 E0.0
;0.3


G1 Z.3 F720
;AFTER_LAYER_CHANGE
;0.3
M104 S228 ; set temperature
; stop printing object pcb_feet_tpu.stl id:0 copy 0
G1 X117.965 Y108.48 F10800
;TYPE:Skirt/Brim
;WIDTH:0.42
G1 F1806.595
G1 X117.599 Y107.725 E.01557
G1 X117.211 Y106.234 E.02859
G1 X117.12 Y104.685 E.0288
M73 Q11 S3
G1 X117.333 Y103.154 E.02869
G1 X117.838 Y101.698 E.0286
G1 X118.621 Y100.363 E.02872
G1 X119.65 Y99.205 E.02875
G1 X120.884 Y98.273 E.0287
G1 X122.275 Y97.599 E.02868
G1 X123.766 Y97.211 E.02859
M73 P11 R3
G1 X125.315 Y97.12 E.0288
G1 X126.846 Y97.333 E.02869
G1 X128.302 Y97.838 E.0286
G1 X129.637 Y98.621 E.02872
G1 X130.795 Y99.65 E.02875
G1 X131.727 Y100.884 E.0287
G1 X132.401 Y102.275 E.02868
G1 X132.789 Y103.766 E.02859
G1 X132.88 Y105.315 E.0288
G1 X132.667 Y106.846 E.02869
G1 X132.162 Y108.302 E.0286
G1 X131.379 Y109.637 E.02872
G1 X130.35 Y110.795 E.02875
G1 X129.116 Y111.727 E.0287
G1 X127.725 Y112.401 E.02868
G1 X126.234 Y112.789 E.02859
G1 X124.685 Y112.88 E.0288
G1 X123.154 Y112.667 E.02869
G1 X121.698 Y112.162 E.0286
G1 X120.363 Y111.379 E.02872
G1 X119.205 Y110.35 E.02875
G1 X118.273 Y109.116 E.0287
G1 X117.991 Y108.534 E.012
G1 X118.329 Y108.371 F10800
G1 F1806.595
G1 X117.951 Y107.589 E.01612
G1 X117.582 Y106.17 E.02721
G1 X117.497 Y104.694 E.02744
G1 X117.7 Y103.236 E.02732
G1 X118.183 Y101.851 E.02722
G1 X118.929 Y100.58 E.02735
G1 X119.91 Y99.478 E.02738
G1 X121.085 Y98.591 E.02732
G1 X122.411 Y97.951 E.02732
G1 X123.83 Y97.582 E.02721
G1 X125.306 Y97.497 E.02744
G1 X126.764 Y97.7 E.02732
G1 X128.149 Y98.183 E.02722
G1 X129.42 Y98.929 E.02735
G1 X130.522 Y99.91 E.02738
G1 X131.409 Y101.085 E.02732
G1 X132.049 Y102.411 E.02732
G1 X132.418 Y103.83 E.02721
G1 X132.503 Y105.306 E.02744
G1 X132.3 Y106.764 E.02732
G1 X131.817 Y108.149 E.02722
G1 X131.071 Y109.42 E.02735
G1 X130.09 Y110.522 E.02738
M73 Q12 S3
G1 X128.915 Y111.409 E.02732
G1 X127.589 Y112.049 E.02732
G1 X126.17 Y112.418 E.02721
G1 X124.694 Y112.503 E.02744
G1 X123.236 Y112.3 E.02732
G1 X121.851 Y111.817 E.02722
G1 X120.58 Y111.071 E.02735
M73 P12 R3
G1 X119.478 Y110.09 E.02738
G1 X118.591 Y108.915 E.02732
G1 X118.355 Y108.425 E.01009
G1 X118.692 Y108.262 F10800
G1 F1806.595
G1 X118.303 Y107.453 E.01666
G1 X117.954 Y106.105 E.02584
G1 X117.874 Y104.704 E.02604
G1 X118.068 Y103.319 E.02595
G1 X118.527 Y102.004 E.02585
G1 X119.238 Y100.796 E.02601
G1 X120.17 Y99.751 E.02599
G1 X121.287 Y98.91 E.02595
G1 X122.547 Y98.303 E.02595
G1 X123.895 Y97.954 E.02584
G1 X125.296 Y97.874 E.02604
G1 X126.681 Y98.068 E.02595
G1 X127.996 Y98.527 E.02585
G1 X129.204 Y99.238 E.02601
G1 X130.249 Y100.17 E.02599
G1 X131.09 Y101.287 E.02595
G1 X131.697 Y102.547 E.02595
G1 X132.046 Y103.895 E.02584
G1 X132.126 Y105.296 E.02604
G1 X131.932 Y106.681 E.02595
G1 X131.473 Y107.996 E.02585
G1 X130.762 Y109.204 E.02601
G1 X129.83 Y110.249 E.02599
G1 X128.713 Y111.09 E.02595
G1 X127.453 Y111.697 E.02595
G1 X126.105 Y112.046 E.02584
G1 X124.704 Y112.126 E.02604
G1 X123.319 Y111.932 E.02595
G1 X122.004 Y111.473 E.02585
G1 X120.796 Y110.762 E.02601
G1 X119.751 Y109.83 E.02599
G1 X118.91 Y108.713 E.02595
G1 X118.719 Y108.316 E.00818
; printing object pcb_feet_tpu.stl id:0 copy 0
G1 X125.773 Y108.242 F10800
M204 S600
;TYPE:Perimeter
;WIDTH:0.449999
G1 F1500
G1 X125.652 Y108.279 E.00252
G1 X125 Y108.343 E.01307
G1 X124.348 Y108.279 E.01307
G1 X123.721 Y108.089 E.01307
G1 X123.143 Y107.78 E.01308
G1 X122.636 Y107.364 E.01309
G1 X122.22 Y106.857 E.01309
G1 X121.911 Y106.279 E.01308
G1 X121.721 Y105.652 E.01307
G1 X121.657 Y105 E.01307
G1 X121.721 Y104.348 E.01307
G1 X121.911 Y103.721 E.01307
G1 X122.22 Y103.143 E.01308
G1 X122.636 Y102.636 E.01309
G1 X123.143 Y102.22 E.01309
G1 X123.721 Y101.911 E.01308
G1 X124.346 Y101.721 E.01304
M73 Q13 S3
G1 X125.011 Y101.657 E.01333
G1 X125.651 Y101.721 E.01283
G1 X126.279 Y101.911 E.01309
G1 X126.857 Y102.22 E.01308
G1 X127.364 Y102.636 E.01309
G1 X127.78 Y103.143 E.01309
G1 X128.089 Y103.721 E.01308
G1 X128.279 Y104.348 E.01307
G1 X128.343 Y105 E.01307
G1 X128.279 Y105.652 E.01307
G1 X128.089 Y106.279 E.01307
G1 X127.78 Y106.857 E.01308
M73 P13 R3
G1 X127.364 Y107.364 E.01309
G1 X126.857 Y107.78 E.01309
G1 X126.279 Y108.089 E.01308
G1 X125.831 Y108.225 E.00934
M204 S1000
G1 X125.888 Y108.655 F10800
M204 S600
G1 F1500
G1 X125.736 Y108.701 E.00317
G1 X125 Y108.774 E.01476
G1 X124.264 Y108.701 E.01476
G1 X123.556 Y108.487 E.01476
G1 X122.903 Y108.138 E.01477
G1 X122.332 Y107.669 E.01474
G1 X121.862 Y107.097 E.01477
G1 X121.513 Y106.444 E.01477
G1 X121.299 Y105.736 E.01476
G1 X121.226 Y105 E.01476
G1 X121.299 Y104.264 E.01476
G1 X121.513 Y103.556 E.01476
G1 X121.862 Y102.903 E.01477
G1 X122.331 Y102.332 E.01474
G1 X122.903 Y101.862 E.01477
G1 X123.556 Y101.513 E.01477
G1 X124.263 Y101.299 E.01474
G1 X125.012 Y101.226 E.01502
G1 X125.736 Y101.299 E.01452
G1 X126.444 Y101.513 E.01476
G1 X127.097 Y101.862 E.01477
G1 X127.668 Y102.331 E.01474
G1 X128.138 Y102.903 E.01477
G1 X128.487 Y103.556 E.01477
G1 X128.701 Y104.264 E.01476
G1 X128.774 Y105 E.01476
G1 X128.701 Y105.736 E.01476
G1 X128.487 Y106.444 E.01476
G1 X128.138 Y107.097 E.01477
G1 X127.669 Y107.668 E.01474
G1 X127.097 Y108.138 E.01477
G1 X126.444 Y108.487 E.01477
G1 X125.945 Y108.638 E.0104
M204 S1000
G1 X126.002 Y109.068 F10800
M204 S600
G1 F1500
G1 X125.82 Y109.124 E.0038
G1 X125 Y109.204 E.01644
G1 X124.18 Y109.124 E.01644
G1 X123.391 Y108.884 E.01646
G1 X122.664 Y108.496 E.01644
G1 X122.027 Y107.973 E.01645
G1 X121.504 Y107.336 E.01645
G1 X121.116 Y106.609 E.01644
G1 X120.876 Y105.82 E.01646
G1 X120.796 Y105 E.01644
