; generated by PrusaSlicer 2.6.1+win64 on 2024-01-26 at 20:04:27 UTC


;
;
; 

; external perimeters extrusion width = 0.45mm
; perimeters extrusion width = 0.45mm
; infill extrusion width = 0.45mm
; solid infill extrusion width = 0.45mm
; top infill extrusion width = 0.40mm
; first layer extrusion width = 0.42mm

; external perimeters extrusion width = 0.45mm
; perimeters extrusion width = 0.45mm
; infill extrusion width = 0.45mm
; solid infill extrusion width = 0.45mm
; top infill extrusion width = 0.40mm
; first layer extrusion width = 0.42mm

; external perimeters extrusion width = 0.45mm
; perimeters extrusion width = 0.45mm
; infill extrusion width = 0.45mm
; solid infill extrusion width = 0.45mm
; top infill extrusion width = 0.40mm
; first layer extrusion width = 0.42mm

; external perimeters extrusion width = 0.45mm
; perimeters extrusion width = 0.45mm
; infill extrusion width = 0.45mm
; solid infill extrusion width = 0.45mm
; top infill extrusion width = 0.40mm
; first layer extrusion width = 0.42mm

M73 P0 R27
M73 Q0 S27
M201 X1000 Y1000 Z200 E5000 ; sets maximum accelerations, mm/sec^2
M203 X200 Y200 Z12 E120 ; sets maximum feedrates, mm / sec
M204 S1250 T1250 ; sets acceleration (S) and retract acceleration (R), mm/sec^2
M205 X8.00 Y8.00 Z0.40 E4.50 ; sets the jerk limits, mm/sec
M205 S0 T0 ; sets the minimum extruding and travel feed rate, mm/sec
;TYPE:Custom
M862.3 P "MK3S" ; printer model check
M862.1 P0.4 ; nozzle diameter check
M115 U3.12.2 ; tell printer latest fw version
G90 ; use absolute coordinates
M83 ; extruder relative mode
M104 S210 ; set extruder temp
M140 S60 ; set bed temp
M190 S60 ; wait for bed temp
M109 S210 ; wait for extruder temp
G28 W ; home all without mesh bed level
G80 ; mesh bed leveling

G1 Z0.2 F720
G1 Y-3 F1000 ; go outside print area
G92 E0
G1 X60 E9 F1000 ; intro line
G1 X100 E12.5 F1000 ; intro line

G92 E0
M221 S100

; Don't change E values below. Excessive value can damage the printer.
M907 E430 ; set extruder motor current
G21 ; set units to millimeters
G90 ; use absolute coordinates
M83 ; use relative distances for extrusion
M900 K0.05 ; Filament gcode LA 1.5
M900 K30 ; Filament gcode LA 1.0
M107
;LAYER_CHANGE
;Z:0.2
;HEIGHT:0.2
;BEFORE_LAYER_CHANGE
G92 E0.0
;0.2


G1 E-.8 F2100
G1 Z.4 F720
;AFTER_LAYER_CHANGE
;0.2
G1 X109.159 Y91.36 F10800
G1 Z.2 F720
G1 E.8 F2100
M204 S800
;TYPE:Skirt/Brim
;WIDTH:0.42
G1 F1200
G1 X110.044 Y90.35 E.04211
G1 X110.866 Y89.578 E.03536
G1 X112.062 Y88.668 E.04712
G1 X113.216 Y87.981 E.04211
G1 X114.237 Y87.501 E.03537
G1 X115.501 Y87.05 E.04208
G1 X117.05 Y86.694 E.04983
G1 X118.631 Y86.534 E.04982
G1 X131.138 Y86.458 E.39216
G1 X132.965 Y86.638 E.05756
G1 X134.95 Y87.148 E.06426
G1 X136.494 Y87.797 E.05251
G1 X138.07 Y88.738 E.05755
G1 X139.65 Y90.044 E.06427
G1 X140.868 Y91.416 E.05752
G1 X142.019 Y93.216 E.06699
G1 X142.7 Y94.747 E.05254
G1 X143.205 Y96.511 E.05753
G1 X143.462 Y98.545 E.06428
G1 X143.542 Y111.138 E.39485
G1 X143.414 Y112.635 E.04711
G1 X143.203 Y113.743 E.03536
G1 X142.77 Y115.182 E.04712
G1 X142.203 Y116.494 E.04481
G1 X141.45 Y117.795 E.04713
G1 X140.787 Y118.707 E.03535
G1 X139.782 Y119.825 E.04714
G1 X138.584 Y120.868 E.0498
G1 X137.402 Y121.672 E.04482
G1 X136.069 Y122.367 E.04713
G1 X135.02 Y122.782 E.03537
G1 X133.489 Y123.205 E.0498
G1 X132.248 Y123.402 E.0394
G1 X131.209 Y123.471 E.03265
G1 X118.545 Y123.533 E.39708
G1 X117.208 Y123.402 E.04212
G1 X115.739 Y123.088 E.0471
G1 X114.666 Y122.74 E.03537
G1 X113.435 Y122.203 E.04211
G1 X112.135 Y121.45 E.0471
G1 X111.222 Y120.787 E.03538
G1 X110.104 Y119.782 E.04714
G1 X109.061 Y118.584 E.0498
G1 X108.258 Y117.402 E.0448
G1 X107.563 Y116.069 E.04713
G1 X107.005 Y114.581 E.04983
G1 X106.724 Y113.489 E.03535
G1 X106.528 Y112.248 E.03939
G1 X106.458 Y111.209 E.03265
G1 X106.467 Y98.615 E.39488
G1 X106.598 Y97.279 E.04209
G1 X106.912 Y95.809 E.04713
G1 X107.26 Y94.737 E.03534
G1 X107.797 Y93.506 E.04211
G1 X108.55 Y92.205 E.04713
G1 X109.124 Y91.409 E.03077
M204 S1000
G1 X109.43 Y91.629 F10800
M204 S800
G1 F1200
G1 X110.319 Y90.609 E.04242
G1 X111.107 Y89.869 E.03389
G1 X112.142 Y89.07 E.041
G1 X113.398 Y88.312 E.046
G1 X114.375 Y87.852 E.03386
G1 X115.607 Y87.412 E.04102
G1 X117.109 Y87.066 E.04833
G1 X118.643 Y86.911 E.04834
G1 X131.126 Y86.835 E.3914
G1 X132.894 Y87.008 E.0557
G1 X134.833 Y87.506 E.06277
G1 X136.323 Y88.133 E.05069
G1 X137.849 Y89.043 E.05571
G1 X139.392 Y90.319 E.06278
G1 X140.571 Y91.647 E.05568
G1 X141.688 Y93.398 E.06512
G1 X142.345 Y94.875 E.05069
G1 X142.835 Y96.582 E.05568
G1 X143.086 Y98.568 E.06276
G1 X143.165 Y111.126 E.39376
G1 X143.04 Y112.588 E.04601
G1 X142.838 Y113.65 E.0339
G1 X142.415 Y115.055 E.04601
G1 X141.867 Y116.323 E.04331
G1 X141.131 Y117.593 E.04602
M73 Q1 S27
G1 X140.496 Y118.467 E.03387
G1 X139.516 Y119.558 E.04598
G1 X138.353 Y120.57 E.04834
G1 X137.21 Y121.347 E.04333
M73 P1 R27
G1 X135.909 Y122.025 E.046
G1 X134.904 Y122.423 E.03389
G1 X133.418 Y122.835 E.04835
G1 X132.201 Y123.027 E.03863
G1 X131.197 Y123.094 E.03155
G1 X118.568 Y123.156 E.39598
G1 X117.267 Y123.03 E.04098
G1 X115.832 Y122.723 E.04601
G1 X114.805 Y122.389 E.03386
G1 X113.606 Y121.867 E.041
G1 X112.337 Y121.131 E.046
G1 X111.462 Y120.496 E.0339
G1 X110.371 Y119.516 E.04598
G1 X109.359 Y118.353 E.04834
G1 X108.582 Y117.21 E.04333
G1 X107.904 Y115.909 E.046
G1 X107.364 Y114.465 E.04834
G1 X107.095 Y113.418 E.03389
G1 X106.902 Y112.201 E.03864
G1 X106.835 Y111.197 E.03155
G1 X106.844 Y98.639 E.39375
G1 X106.97 Y97.338 E.04098
G1 X107.277 Y95.903 E.04601
G1 X107.611 Y94.875 E.03389
G1 X108.133 Y93.677 E.04097
G1 X108.869 Y92.407 E.04602
G1 X109.395 Y91.678 E.02819
M204 S1000
;WIPE_START
G1 F8640
G1 X110.319 Y90.609 E-.32626
G1 X111.107 Y89.869 E-.2496
G1 X111.875 Y89.276 E-.22414
;WIPE_END
G1 Z.6 F720
G1 X111.495 Y93.337 F10800
G1 Z.2 F720
G1 E.8 F2100
M204 S800
G1 F1200
G1 X111.937 Y92.778 E.02234
G1 X112.648 Y92.061 E.03166
G1 X113.321 Y91.504 E.02739
G1 X114.09 Y90.981 E.02916
G1 X114.849 Y90.562 E.02718
G1 X115.855 Y90.133 E.03429
G1 X116.632 Y89.892 E.02551
G1 X117.486 Y89.704 E.02742
G1 X118.349 Y89.597 E.02727
G1 X119.416 Y89.571 E.03346
G1 X120.508 Y89.669 E.03438
G1 X121.286 Y89.816 E.02483
G1 X122.251 Y90.095 E.0315
G1 X123.086 Y90.428 E.02819
G1 X123.877 Y90.833 E.02786
G1 X124.535 Y91.243 E.02431
G1 X124.898 Y91.529 E.01449
G1 X125.861 Y90.874 E.03652
G1 X126.588 Y90.478 E.02596
G1 X127.475 Y90.097 E.03027
G1 X128.277 Y89.839 E.02642
G1 X129.408 Y89.6 E.03624
G1 X130.359 Y89.507 E.02996
G1 X131.296 Y89.508 E.02938
G1 X132.143 Y89.588 E.02668
G1 X132.954 Y89.735 E.02584
G1 X133.872 Y89.994 E.02991
G1 X134.609 Y90.273 E.02471
G1 X135.529 Y90.729 E.03219
G1 X136.201 Y91.142 E.02473
G1 X137.069 Y91.802 E.03419
G1 X138.046 Y92.767 E.04306
G1 X138.54 Y93.381 E.02471
G1 X139.021 Y94.093 E.02694
G1 X139.476 Y94.927 E.02979
G1 X139.815 Y95.717 E.02695
G1 X140.077 Y96.516 E.02636
G1 X140.29 Y97.456 E.03022
G1 X140.393 Y98.219 E.02414
G1 X140.429 Y99.407 E.03727
G1 X140.345 Y100.404 E.03137
G1 X140.206 Y101.192 E.02509
G1 X139.907 Y102.245 E.03432
G1 X139.571 Y103.087 E.02842
G1 X139.164 Y103.882 E.028
G1 X138.719 Y104.587 E.02614
G1 X138.476 Y104.902 E.01247
G1 X139.153 Y105.905 E.03794
G1 X139.527 Y106.599 E.02472
G1 X139.913 Y107.502 E.03079
G1 X140.169 Y108.307 E.02649
G1 X140.38 Y109.28 E.03122
G1 X140.489 Y110.297 E.03207
G1 X140.499 Y111.161 E.02709
G1 X140.416 Y112.116 E.03006
G1 X140.243 Y113.045 E.02963
G1 X139.902 Y114.172 E.03692
G1 X139.547 Y115.001 E.02828
G1 X139.13 Y115.774 E.02754
G1 X138.499 Y116.697 E.03506
G1 X137.967 Y117.327 E.02585
G1 X137.364 Y117.928 E.02669
G1 X136.698 Y118.481 E.02714
G1 X135.909 Y119.02 E.02996
G1 X135.062 Y119.481 E.03024
G1 X134.096 Y119.885 E.03283
G1 X133.372 Y120.107 E.02374
G1 X132.264 Y120.336 E.03547
G1 X131.402 Y120.419 E.02715
G1 X130.613 Y120.43 E.02474
G1 X129.561 Y120.34 E.03311
G1 X128.647 Y120.168 E.02916
G1 X127.765 Y119.911 E.0288
G1 X126.915 Y119.572 E.02869
G1 X126.124 Y119.168 E.02785
G1 X125.452 Y118.747 E.02486
G1 X125.061 Y118.446 E.01547
G1 X124.008 Y119.163 E.03994
G1 X123.331 Y119.526 E.02409
G1 X122.393 Y119.926 E.03197
G1 X121.606 Y120.173 E.02586
G1 X120.671 Y120.377 E.03001
G1 X119.633 Y120.489 E.03273
G1 X118.782 Y120.499 E.02668
G1 X117.696 Y120.4 E.03419
G1 X116.929 Y120.254 E.02448
G1 X115.851 Y119.936 E.03524
G1 X115.125 Y119.639 E.02459
G1 X114.292 Y119.21 E.02938
G1 X113.607 Y118.774 E.02546
G1 X112.735 Y118.088 E.03479
G1 X112.014 Y117.377 E.03175
G1 X111.385 Y116.613 E.03103
G1 X110.804 Y115.735 E.03301
G1 X110.452 Y115.069 E.02362
G1 X110.115 Y114.286 E.02673
G1 X109.843 Y113.449 E.02759
G1 X109.606 Y112.347 E.03534
G1 X109.51 Y111.409 E.02956
G1 X109.503 Y110.522 E.02781
G1 X109.587 Y109.573 E.02987
G1 X109.738 Y108.744 E.02642
G1 X110.024 Y107.749 E.03246
G1 X110.367 Y106.893 E.02891
G1 X110.774 Y106.103 E.02786
G1 X111.196 Y105.432 E.02485
G1 X111.489 Y105.052 E.01505
G1 X110.838 Y104.08 E.03668
G1 X110.474 Y103.402 E.02413
G1 X110.074 Y102.464 E.03197
G1 X109.826 Y101.675 E.02593
G1 X109.619 Y100.718 E.0307
G1 X109.51 Y99.685 E.03257
G1 X109.501 Y98.852 E.02612
G1 X109.6 Y97.767 E.03416
G1 X109.746 Y96.999 E.02451
G1 X110.064 Y95.921 E.03524
G1 X110.361 Y95.196 E.02457
G1 X110.79 Y94.362 E.02941
G1 X111.23 Y93.672 E.02566
G1 X111.457 Y93.385 E.01147
M204 S1000
G1 X111.753 Y93.618 F10800
M204 S800
G1 F1200
G1 X112.226 Y93.02 E.02391
G1 X112.909 Y92.334 E.03035
G1 X113.555 Y91.801 E.02626
G1 X114.294 Y91.298 E.02803
G1 X115.006 Y90.905 E.0255
G1 X115.994 Y90.484 E.03367
G1 X116.721 Y90.258 E.02387
G1 X117.559 Y90.074 E.0269
G1 X118.386 Y89.972 E.02613
G1 X119.414 Y89.948 E.03224
G1 X120.464 Y90.044 E.03306
G1 X121.206 Y90.185 E.02368
G1 X122.137 Y90.454 E.03038
G1 X122.923 Y90.768 E.02654
G1 X123.684 Y91.157 E.0268
G1 X124.326 Y91.558 E.02373
G1 X124.913 Y92.023 E.02348
G1 X125.208 Y91.774 E.0121
G1 X126.065 Y91.191 E.0325
G1 X126.76 Y90.814 E.02479
G1 X127.615 Y90.447 E.02917
G1 X128.383 Y90.201 E.02529
G1 X129.455 Y89.974 E.03436
G1 X130.368 Y89.884 E.02877
G1 X131.269 Y89.884 E.02825
G1 X132.084 Y89.96 E.02566
G1 X132.86 Y90.1 E.02472
G1 X133.762 Y90.354 E.02938
G1 X134.467 Y90.622 E.02365
G1 X135.353 Y91.062 E.03102
G1 X135.995 Y91.458 E.02365
G1 X136.831 Y92.095 E.03295
G1 X137.76 Y93.012 E.04093
G1 X138.232 Y93.599 E.02362
G1 X138.704 Y94.296 E.02639
G1 X139.133 Y95.084 E.02813
G1 X139.466 Y95.858 E.02642
G1 X139.716 Y96.625 E.02529
G1 X139.92 Y97.53 E.02909
G1 X140.018 Y98.26 E.02309
G1 X140.052 Y99.407 E.03598
G1 X139.97 Y100.364 E.03012
G1 X139.836 Y101.116 E.02395
G1 X139.547 Y102.133 E.03315
G1 X139.232 Y102.923 E.02667
G1 X138.841 Y103.689 E.02697
G1 X138.406 Y104.378 E.02555
G1 X137.982 Y104.923 E.02165
G1 X138.269 Y105.265 E.014
G1 X138.835 Y106.108 E.03184
G1 X139.191 Y106.77 E.02357
G1 X139.563 Y107.641 E.0297
G1 X139.807 Y108.412 E.02536
G1 X140.006 Y109.33 E.02945
G1 X140.113 Y110.328 E.03147
G1 X140.122 Y111.137 E.02537
G1 X140.041 Y112.074 E.02949
G1 X139.879 Y112.946 E.02781
G1 X139.551 Y114.033 E.0356
G1 X139.204 Y114.845 E.02769
G1 X138.803 Y115.585 E.02639
G1 X138.193 Y116.477 E.03388
G1 X137.695 Y117.066 E.02418
G1 X137.104 Y117.654 E.02614
G1 X136.465 Y118.185 E.02605
G1 X135.705 Y118.703 E.02884
G1 X134.907 Y119.137 E.02848
G1 X133.976 Y119.527 E.03165
G1 X133.286 Y119.739 E.02263
G1 X132.218 Y119.961 E.0342
G1 X131.374 Y120.043 E.02659
G1 X130.635 Y120.054 E.02317
G1 X129.603 Y119.966 E.03248
G1 X128.743 Y119.803 E.02744
G1 X127.879 Y119.551 E.02822
G1 X127.079 Y119.232 E.027
G1 X126.317 Y118.844 E.02681
G1 X125.66 Y118.432 E.02432
G1 X125.046 Y117.957 E.02434
G1 X124.632 Y118.293 E.01672
G1 X123.821 Y118.835 E.03058
G1 X123.175 Y119.183 E.02301
G1 X122.271 Y119.569 E.03082
G1 X121.518 Y119.807 E.02476
G1 X120.601 Y120.006 E.02942
G1 X119.602 Y120.113 E.0315
G1 X118.806 Y120.123 E.02496
G1 X117.74 Y120.025 E.03356
G1 X117.009 Y119.885 E.02334
G1 X115.984 Y119.583 E.0335
G1 X115.29 Y119.3 E.0235
G1 X114.472 Y118.879 E.02885
G1 X113.833 Y118.472 E.02375
G1 X112.992 Y117.812 E.03352
G1 X112.298 Y117.129 E.03053
G1 X111.694 Y116.396 E.02978
G1 X111.133 Y115.55 E.03183
G1 X110.795 Y114.913 E.02261
G1 X110.465 Y114.145 E.02621
G1 X110.209 Y113.36 E.02589
G1 X109.98 Y112.299 E.03403
G1 X109.887 Y111.379 E.02899
G1 X109.88 Y110.528 E.02668
G1 X109.962 Y109.616 E.02871
G1 X110.103 Y108.839 E.02476
G1 X110.384 Y107.862 E.03188
G1 X110.707 Y107.057 E.0272
G1 X111.097 Y106.297 E.02678
G1 X111.51 Y105.641 E.02431
G1 X111.98 Y105.034 E.02407
G1 X111.719 Y104.719 E.01283
G1 X111.166 Y103.893 E.03117
G1 X110.817 Y103.246 E.02305
G1 X110.431 Y102.341 E.03085
G1 X110.193 Y101.587 E.02479
G1 X109.99 Y100.648 E.03012
G1 X109.887 Y99.671 E.0308
G1 X109.877 Y98.877 E.0249
G1 X109.975 Y97.81 E.0336
G1 X110.115 Y97.079 E.02334
G1 X110.417 Y96.055 E.03347
G1 X110.7 Y95.361 E.0235
G1 X111.121 Y94.542 E.02887
G1 X111.532 Y93.898 E.02395
G1 X111.716 Y93.665 E.00931
M204 S1000
G1 X112.012 Y93.899 F10800
M204 S800
G1 F1200
G1 X112.501 Y93.278 E.02478
G1 X113.17 Y92.607 E.02971
G1 X113.787 Y92.097 E.0251
G1 X114.499 Y91.615 E.02696
G1 X115.179 Y91.24 E.02435
G1 X116.132 Y90.835 E.03247
G1 X116.809 Y90.625 E.02222
G1 X117.631 Y90.445 E.02638
G1 X118.422 Y90.348 E.02499
G1 X119.411 Y90.325 E.03102
G1 X120.42 Y90.418 E.03177
G1 X121.127 Y90.554 E.02257
G1 X122.023 Y90.814 E.02925
G1 X122.759 Y91.108 E.02485
G1 X123.491 Y91.481 E.02576
G1 X124.117 Y91.872 E.02314
G1 X124.922 Y92.512 E.03225
G1 X125.429 Y92.079 E.02091
G1 X126.253 Y91.518 E.03126
G1 X126.917 Y91.157 E.0237
G1 X127.739 Y90.803 E.02806
G1 X128.47 Y90.568 E.02408
G1 X129.523 Y90.345 E.03375
G1 X130.395 Y90.261 E.02747
G1 X131.26 Y90.261 E.02712
G1 X132.04 Y90.335 E.02457
G1 X132.784 Y90.47 E.02371
G1 X133.651 Y90.715 E.02825
G1 X134.324 Y90.971 E.02258
G1 X135.177 Y91.396 E.02988
G1 X135.789 Y91.774 E.02255
G1 X136.592 Y92.387 E.03168
G1 X137.473 Y93.257 E.03882
G1 X137.924 Y93.817 E.02254
G1 X138.386 Y94.5 E.02585
G1 X138.79 Y95.241 E.02646
G1 X139.116 Y95.999 E.02587
G1 X139.355 Y96.733 E.0242
G1 X139.551 Y97.605 E.02802
G1 X139.643 Y98.299 E.02195
G1 X139.675 Y99.406 E.03472
G1 X139.595 Y100.322 E.02883
G1 X139.467 Y101.04 E.02287
G1 X139.187 Y102.02 E.03196
G1 X138.892 Y102.76 E.02498
G1 X138.517 Y103.495 E.02587
G1 X138.092 Y104.169 E.02498
G1 X137.495 Y104.933 E.0304
M73 Q2 S27
G1 X137.962 Y105.484 E.02265
G1 X138.507 Y106.295 E.03064
G1 X138.847 Y106.926 E.02247
G1 X139.212 Y107.781 E.02915
M73 P2 R27
G1 X139.44 Y108.501 E.02368
G1 X139.636 Y109.4 E.02885
G1 X139.737 Y110.359 E.03024
G1 X139.746 Y111.114 E.02367
G1 X139.666 Y112.032 E.02889
G1 X139.515 Y112.848 E.02602
G1 X139.2 Y113.895 E.03428
G1 X138.861 Y114.689 E.02707
G1 X138.476 Y115.397 E.02527
G1 X137.888 Y116.255 E.03261
G1 X137.423 Y116.804 E.02256
G1 X136.856 Y117.37 E.02512
G1 X136.231 Y117.889 E.02547
G1 X135.5 Y118.386 E.02772
G1 X134.752 Y118.793 E.0267
G1 X133.856 Y119.17 E.03048
G1 X133.201 Y119.372 E.02149
G1 X132.171 Y119.587 E.03299
G1 X131.345 Y119.667 E.02602
G1 X130.658 Y119.677 E.02154
G1 X129.644 Y119.591 E.03191
G1 X128.84 Y119.438 E.02566
G1 X127.993 Y119.192 E.02765
G1 X127.242 Y118.893 E.02534
G1 X126.51 Y118.52 E.02576
G1 X125.868 Y118.118 E.02375
G1 X125.04 Y117.474 E.03289
G1 X124.414 Y117.985 E.02534
G1 X123.634 Y118.507 E.02943
G1 X123.019 Y118.84 E.02193
G1 X122.131 Y119.219 E.03027
G1 X121.429 Y119.44 E.02308
G1 X120.531 Y119.635 E.02881
G1 X119.571 Y119.737 E.03027
G1 X118.831 Y119.746 E.0232
G1 X117.784 Y119.65 E.03297
G1 X117.089 Y119.517 E.02219
G1 X116.117 Y119.23 E.03178
G1 X115.455 Y118.961 E.0224
G1 X114.667 Y118.556 E.02778
G1 X114.058 Y118.169 E.02262
G1 X113.249 Y117.536 E.03221
G1 X112.57 Y116.867 E.02989
G1 X112.002 Y116.18 E.02795
G1 X111.462 Y115.365 E.03065
G1 X111.138 Y114.757 E.0216
G1 X110.815 Y114.004 E.02569
G1 X110.576 Y113.27 E.0242
G1 X110.354 Y112.25 E.03273
G1 X110.263 Y111.35 E.02836
G1 X110.257 Y110.535 E.02555
G1 X110.337 Y109.658 E.02761
G1 X110.468 Y108.934 E.02307
G1 X110.744 Y107.976 E.03126
G1 X111.046 Y107.222 E.02547
G1 X111.421 Y106.49 E.02579
